sample/test_lut.cube
TITLE "Test LUT - Warm"
LUT_3D_SIZE 2
DOMAIN_MIN 0.0 0.0 0.0
DOMAIN_MAX 1.0 1.0 1.0
# Simple 2x2x2 LUT for testing - adds warm tint
0.0 0.0 0.0
0.0 0.0 1.0
0.0 1.0 0.0
0.0 1.0 1.0
1.1 0.0 0.0
1.1 0.0 1.0
1.1 1.0 0.0
1.1 1.0 1.0
