test-assets/custom_domain_1d.cube
# Custom Domain 1D LUT
# Tests DOMAIN_MIN/MAX handling - clamps values outside 0.1-0.9 range

TITLE "Custom Domain Test"
LUT_1D_SIZE 9
DOMAIN_MIN 0.1 0.1 0.1
DOMAIN_MAX 0.9 0.9 0.9

0.100000 0.100000 0.100000
0.200000 0.200000 0.200000
0.300000 0.300000 0.300000
0.400000 0.400000 0.400000
0.500000 0.500000 0.500000
0.600000 0.600000 0.600000
0.700000 0.700000 0.700000
0.800000 0.800000 0.800000
0.900000 0.900000 0.900000
