test-assets/gamma_2.2.cube
# Gamma 2.2 1D LUT
# This LUT applies a gamma 2.2 curve to linearize the image

TITLE "Gamma 2.2"
LUT_1D_SIZE 17
DOMAIN_MIN 0.0 0.0 0.0
DOMAIN_MAX 1.0 1.0 1.0

0.000000 0.000000 0.000000
0.006512 0.006512 0.006512
0.020654 0.020654 0.020654
0.042311 0.042311 0.042311
0.072310 0.072310 0.072310
0.111029 0.111029 0.111029
0.158740 0.158740 0.158740
0.215679 0.215679 0.215679
0.282051 0.282051 0.282051
0.358037 0.358037 0.358037
0.443803 0.443803 0.443803
0.539499 0.539499 0.539499
0.645266 0.645266 0.645266
0.761233 0.761233 0.761233
0.887520 0.887520 0.887520
1.000000 1.000000 1.000000
1.000000 1.000000 1.000000
